X:1     %Music
T:The Tinker's Wedding
B:Singing Together, Spring 1974, BBC Publications
F:http://www.folkinfo.org/songs
M:4/4     %Meter
L:1/8     %
K:G
A3/2F/ |D/D3/2 F3/2D/ G3/2E/ A2 | D/D3/2 F3/2D/ E/C3/2 C2 |
w:There were herr-in' heads an' bits o' bread, Herr-in' heads an' hadd-ies, O, 
D/D3/2 F3/2D/ G3/2E/ A3/2 c/ |d/d3/2 A3/2G/ F/D3/2 D2 |
w:Herr-in' heads an' bits o' bread, To car-ry on the wed-din' O! 
(3:2DDD F3/2D/ G3/2E/ A2 |(3:2DDD F3/2D/ E/C3/2 C2 |
w:Drum-mer a-doo a-doo a-day, Drum-mer a-doo a dad-din, O! 
(3:2DDD F3/2D/ G3/2E/ A3/2c/ |dA/A/ A3/2G/ F/D3/2 D2 |]
w:Drum-mer a-doo a-doo a-day, Hur-rah for the Tin-ker's wed-din' O! 